src/lib/packages/icons/src/assets/line/file-plus.svg

<svg xmlns="http://www.w3.org/2000/svg" width="24" height="24" fill="none"><path fill="currentColor" d="m20.53 8.47-6-6a.749.749 0 0 0-.53-.22H8C5.582 2.25 4.25 3.582 4.25 6v12c0 2.418 1.332 3.75 3.75 3.75h9c2.418 0 3.75-1.332 3.75-3.75V9a.747.747 0 0 0-.22-.53Zm-5.78-3.659 3.439 3.439H17c-1.577 0-2.25-.673-2.25-2.25V4.811ZM17 20.25H8c-1.577 0-2.25-.673-2.25-2.25V6c0-1.577.673-2.25 2.25-2.25h5.25V6c0 2.418 1.332 3.75 3.75 3.75h2.25V18c0 1.577-.673 2.25-2.25 2.25ZM15.75 14a.75.75 0 0 1-.75.75h-1.75v1.75a.75.75 0 0 1-1.5 0v-1.75H10a.75.75 0 0 1 0-1.5h1.75V11.5a.75.75 0 0 1 1.5 0v1.75H15a.75.75 0 0 1 .75.75Z"/></svg>

<svg width="24" height="24" viewBox="0 0 24 24" fill="none" xmlns="http://www.w3.org/2000/svg">
<path d="M20.53 8.47L14.53 2.47C14.389 2.329 14.199 2.25 14 2.25H8C5.582 2.25 4.25 3.582 4.25 6V18C4.25 20.418 5.582 21.75 8 21.75H17C19.418 21.75 20.75 20.418 20.75 18V9C20.75 8.801 20.671 8.61 20.53 8.47ZM14.75 4.811L18.189 8.25H17C15.423 8.25 14.75 7.577 14.75 6V4.811ZM17 20.25H8C6.423 20.25 5.75 19.577 5.75 18V6C5.75 4.423 6.423 3.75 8 3.75H13.25V6C13.25 8.418 14.582 9.75 17 9.75H19.25V18C19.25 19.577 18.577 20.25 17 20.25ZM15.75 14C15.75 14.414 15.414 14.75 15 14.75H13.25V16.5C13.25 16.914 12.914 17.25 12.5 17.25C12.086 17.25 11.75 16.914 11.75 16.5V14.75H10C9.586 14.75 9.25 14.414 9.25 14C9.25 13.586 9.586 13.25 10 13.25H11.75V11.5C11.75 11.086 12.086 10.75 12.5 10.75C12.914 10.75 13.25 11.086 13.25 11.5V13.25H15C15.414 13.25 15.75 13.586 15.75 14Z" fill="currentColor"/>
</svg>
